static/images/ui/checkbox-checked.svg

<svg xmlns="http://www.w3.org/2000/svg" width="22" height="22" viewBox="3 -3 22 22" enable-background="new 3 -3 22 22"><path fill="#F1592A" d="M17 11.3v5.7h-12v-12h10.1l2.3-2h-14.4v16h16v-9.4l-2 1.7zm-5.6 2.9l-4.6-5.2 2.3-2 2.6 3 10.6-9.3 2 2.2-12.9 11.3z"/></svg>

<?xml version="1.0" encoding="utf-8"?>
<!-- Generator: Adobe Illustrator 18.1.1, SVG Export Plug-In . SVG Version: 6.00 Build 0)  -->
<!DOCTYPE svg PUBLIC "-//W3C//DTD SVG 1.1//EN" "http://www.w3.org/Graphics/SVG/1.1/DTD/svg11.dtd">
<svg version="1.1" id="Layer_1" xmlns="http://www.w3.org/2000/svg" xmlns:xlink="http://www.w3.org/1999/xlink" x="0px" y="0px"
	 width="22px" height="22px" viewBox="3 -3 22 22" enable-background="new 3 -3 22 22" xml:space="preserve">
<path fill="#F1592A" d="M17,11.3V17H5V5h10.1l2.3-2H3v16h16V9.6L17,11.3z M11.4,14.2L6.8,9l2.3-2l2.6,3l10.6-9.3l2,2.2L11.4,14.2z"
	/>
</svg>
